svg/barn.svg

<svg xmlns="http://www.w3.org/2000/svg" viewBox="0 0 24 24"><path d="M12 3 3 8.2V21h6l2.9-3 3.1 3h6V8.2zM7.9 20v-6l3 3zm1-7h6l-3 3zm7 7-3-3 3-3zm-.9-9H8.8V9H15z"/></svg>

<?xml version="1.0" encoding="UTF-8"?><!DOCTYPE svg PUBLIC "-//W3C//DTD SVG 1.1//EN" "http://www.w3.org/Graphics/SVG/1.1/DTD/svg11.dtd"><svg xmlns="http://www.w3.org/2000/svg" xmlns:xlink="http://www.w3.org/1999/xlink" version="1.1" id="mdi-barn" width="24" height="24" viewBox="0 0 24 24"><path d="M12,3L3,8.2V21H9L11.9,18L15,21H21V8.2L12,3M7.9,20V14L10.9,17L7.9,20M8.9,13H14.9L11.9,16L8.9,13M15.9,20L12.9,17L15.9,14V20M15,11H8.8V9H15V11Z" /></svg>
